img/payment/img5_v2.svg

<svg width="41" height="23" viewBox="0 0 41 23" fill="none" xmlns="http://www.w3.org/2000/svg">
<path d="M8.53152 12.6097L11.2889 14.4294V17.7907L8.51562 22.7571L8.53152 12.6097Z" fill="#62B22F"/>
<path d="M6.24287 11.1793L8.9923 12.7765L0.823486 17.735L3.4855 12.8798L6.24287 11.1793Z" fill="#974995"/>
<path d="M19.0763 6.59427L13.8158 6.57044L11.2809 5.04474L8.53149 0.229279L19.0763 6.59427Z" fill="#EE7024"/>
<path d="M8.53152 0.229279L11.2809 5.04474L11.2889 11.6799L8.51562 10.8376L8.53152 0.229279Z" fill="#FBB61B"/>
<path d="M0.799561 5.07655L3.49336 9.97943L3.48541 12.8798L0.823399 17.735L0.799561 5.07655Z" fill="#5A58A3"/>
<path d="M0.799561 5.07655L19.0363 16.2332L13.8077 16.265L3.49336 9.97943L0.799561 5.07655Z" fill="#2188CB"/>
<path d="M13.8156 6.57047L19.0761 6.5943L11.2887 11.378L11.2808 8.11205L13.8156 6.57047Z" fill="#DA0954"/>
<path d="M28.9773 7.35711C29.613 6.77703 30.495 6.48301 31.3532 6.50685C32.2512 6.49096 33.157 6.54659 34.055 6.44328C33.8643 7.03926 33.4669 7.55577 33.2047 8.11996C32.5611 8.1279 31.9174 8.11201 31.2658 8.1279C30.4394 8.19942 29.6448 8.86691 29.5653 9.70922C30.3202 8.95432 31.4963 8.90664 32.4737 9.15298C33.1253 9.37547 33.7133 9.86814 33.9517 10.5277C34.1742 11.1078 34.206 11.7435 34.0629 12.3474C33.8484 13.1738 33.1809 13.8175 32.3942 14.1194C31.4724 14.4691 30.4076 14.485 29.4858 14.1194C28.6118 13.7618 27.9919 12.9354 27.7853 12.0295C27.5549 11.219 27.5867 10.0271 27.8251 9.2086C28.0317 8.50932 28.4369 7.85773 28.9773 7.35711ZM31.2181 10.5118C30.7255 10.4164 30.1692 10.6151 29.9149 11.0442C29.4541 11.8309 30.0898 12.999 31.1228 12.856C32.2591 12.6891 32.5531 10.8694 31.2181 10.5118ZM23.8916 8.47754C24.9088 8.22326 26.0769 8.30272 26.943 8.93842C26.657 9.39931 26.3947 9.88403 26.1325 10.3608C25.7113 10.2178 25.2902 9.99528 24.8373 10.0032C24.3525 9.98734 23.8201 10.178 23.542 10.5992C23.248 11.0442 23.2321 11.6561 23.5182 12.109C23.7724 12.5381 24.281 12.7368 24.7578 12.7765C25.1313 12.7368 25.5127 12.6811 25.8544 12.5222C25.9338 12.4666 26.0292 12.4745 26.1246 12.4825C26.2914 12.9672 26.6649 13.3645 26.8079 13.8492C25.8703 14.3499 24.7498 14.4532 23.7248 14.2068C23.0175 14.0002 22.3421 13.595 21.9369 12.9593C21.2932 11.9739 21.317 10.5833 22.056 9.66154C22.501 9.05762 23.1844 8.66825 23.8916 8.47754ZM35.0642 8.50138C37.0428 8.48548 39.0214 8.48548 41.0001 8.50138C40.9842 10.3847 40.9921 12.26 40.9921 14.1433C40.3246 14.1433 39.6571 14.1512 38.9976 14.1433C39.0294 12.9116 38.9658 11.6799 39.0055 10.4482C39.0055 10.3529 38.9896 10.2655 38.942 10.178C38.338 10.1939 37.7262 10.1939 37.1143 10.178C37.0746 11.4971 37.1064 12.8162 37.0984 14.1433C36.423 14.1512 35.7396 14.1512 35.0642 14.1433C35.0642 12.26 35.0721 10.3847 35.0642 8.50138Z" fill="black"/>
<path d="M11.2889 17.7907L13.8079 16.265L19.0365 16.2332L8.51562 22.7571L11.2889 17.7907Z" fill="#037F37"/>
</svg>

<svg width="41" height="23" fill="none" xmlns="http://www.w3.org/2000/svg"><path d="M8.532 12.61l2.757 1.82v3.36l-2.773 4.967.016-10.147z" fill="#62B22F"/><path d="M6.243 11.18l2.75 1.597-8.17 4.958 2.663-4.855 2.757-1.7z" fill="#974995"/><path d="M19.076 6.594l-5.26-.024-2.535-1.525L8.53.229l10.545 6.365z" fill="#EE7024"/><path d="M8.532.23l2.749 4.815.008 6.635-2.773-.842L8.532.229z" fill="#FBB61B"/><path d="M.8 5.077l2.693 4.902-.008 2.9-2.662 4.856L.8 5.077z" fill="#5A58A3"/><path d="M.8 5.077l18.236 11.156-5.228.032L3.493 9.979.8 5.077z" fill="#2188CB"/><path d="M13.816 6.57l5.26.024-7.787 4.784-.008-3.266 2.535-1.542z" fill="#DA0954"/><path d="M28.977 7.357c.636-.58 1.518-.874 2.376-.85.898-.016 1.804.04 2.702-.064-.19.596-.588 1.113-.85 1.677-.644.008-1.288-.008-1.94.008-.826.071-1.62.739-1.7 1.581.755-.755 1.931-.802 2.909-.556.651.222 1.24.715 1.478 1.375a3.09 3.09 0 01.11 1.82c-.214.826-.881 1.47-1.668 1.771-.922.35-1.986.366-2.908 0-.874-.357-1.494-1.184-1.7-2.09-.231-.81-.2-2.002.04-2.82.206-.7.61-1.351 1.151-1.852zm2.241 3.155c-.492-.096-1.049.103-1.303.532-.46.787.175 1.955 1.208 1.812 1.136-.167 1.43-1.987.095-2.344zm-7.326-2.034c1.017-.255 2.185-.175 3.051.46-.286.461-.548.946-.81 1.423-.422-.143-.843-.366-1.296-.358-.485-.016-1.017.175-1.295.596a1.419 1.419 0 00-.024 1.51c.254.43.763.628 1.24.668.373-.04.755-.096 1.096-.255.08-.055.175-.047.27-.04.167.485.54.883.684 1.367-.938.5-2.058.604-3.083.358-.708-.207-1.383-.612-1.788-1.248-.644-.985-.62-2.376.119-3.297.445-.604 1.128-.994 1.836-1.184zm11.172.023c1.979-.016 3.957-.016 5.936 0-.016 1.884-.008 3.759-.008 5.642-.667 0-1.335.008-1.994 0 .031-1.231-.032-2.463.008-3.695a.543.543 0 00-.064-.27c-.604.016-1.216.016-1.828 0-.04 1.32-.008 2.638-.016 3.965-.675.008-1.358.008-2.034 0 0-1.883.008-3.758 0-5.642z" fill="#000"/><path d="M11.289 17.79l2.519-1.525 5.229-.032-10.521 6.524 2.773-4.966z" fill="#037F37"/></svg>
